packages/sources/icons/src/vitamix/filter-off-fill.svg

<svg width="16" height="16" viewBox="0 0 16 16" xmlns="http://www.w3.org/2000/svg"><path fill-rule="evenodd" clip-rule="evenodd" d="M14.0467 10.0947L4.61933 0.666687L3.67667 1.60935L5.05667 2.99002H2V4.32335H2.66667L6.66667 10.3234V14.99H9.33333V10.3234L10.5553 8.48935L13.104 11.0374L14.0467 10.0947ZM14 4.32332V2.98998H8.8087L12.0567 6.23798L13.3334 4.32332H14Z"/></svg>

<svg width="16" height="16" xmlns="http://www.w3.org/2000/svg"><path fill-rule="evenodd" clip-rule="evenodd" d="M14.047 10.095 4.619.667l-.942.942 1.38 1.381H2v1.333h.667l4 6v4.667h2.666v-4.667l1.222-1.834 2.549 2.548.943-.942ZM14 4.323V2.99H8.809l3.248 3.248 1.276-1.915H14Z"/></svg>
